Sweet-Rainbow/icons/gufw.svg

<?xml version="1.0" encoding="UTF-8" standalone="no"?>
<!-- Generator: Gravit.io -->

<svg
   xmlns:dc="http://purl.org/dc/elements/1.1/"
   xmlns:cc="http://creativecommons.org/ns#"
   xmlns:rdf="http://www.w3.org/1999/02/22-rdf-syntax-ns#"
   xmlns:svg="http://www.w3.org/2000/svg"
   xmlns="http://www.w3.org/2000/svg"
   xmlns:sodipodi="http://sodipodi.sourceforge.net/DTD/sodipodi-0.dtd"
   xmlns:inkscape="http://www.inkscape.org/namespaces/inkscape"
   style="isolation:isolate"
   viewBox="0 0 36 36"
   width="48"
   height="48"
   version="1.1"
   id="svg9"
   sodipodi:docname="gufw.svg"
   inkscape:version="0.92.4 (5da689c313, 2019-01-14)">
  <metadata
     id="metadata15">
    <rdf:RDF>
      <cc:Work
         rdf:about="">
        <dc:format>image/svg+xml</dc:format>
        <dc:type
           rdf:resource="http://purl.org/dc/dcmitype/StillImage" />
        <dc:title></dc:title>
      </cc:Work>
    </rdf:RDF>
  </metadata>
  <defs
     id="defs13" />
  <sodipodi:namedview
     pagecolor="#ffffff"
     bordercolor="#666666"
     borderopacity="1"
     objecttolerance="10"
     gridtolerance="10"
     guidetolerance="10"
     inkscape:pageopacity="0"
     inkscape:pageshadow="2"
     inkscape:window-width="640"
     inkscape:window-height="480"
     id="namedview11"
     showgrid="false"
     inkscape:zoom="29.365243"
     inkscape:cx="25.325443"
     inkscape:cy="32"
     inkscape:current-layer="svg9"
     units="px" />
  <linearGradient
     id="_lgradient_1"
     x1="0"
     y1="0.5"
     x2="1"
     y2="0.5"
     gradientTransform="matrix(36,0,0,46.469,6,0.7)"
     gradientUnits="userSpaceOnUse">
    <stop
       offset="0%"
       stop-opacity="1"
       style="stop-color:rgb(0,255,169)"
       id="stop2" />
    <stop
       offset="100%"
       stop-opacity="1"
       style="stop-color:rgb(240,116,179)"
       id="stop4" />
  </linearGradient>
  <g
     id="g826"
     transform="matrix(0.77471039,0,0,0.77471039,-0.59304936,-0.54229729)">
    <path
       id="path7"
       d="m 37.1,25.37 v 0 c 0.348,-1.049 1.481,-1.618 2.53,-1.27 v 0 c 1.049,0.348 1.618,1.481 1.27,2.53 v 0 l -0.62,1.87 c 0,0 0,0.01 0,0.01 -0.69,2.04 -1.58,4 -2.66,5.85 -1.08,1.89 -2.33,3.69 -3.72,5.36 -1.32,1.6 -2.79,3.08 -4.4,4.39 -0.74,0.61 -1.52,1.17 -2.34,1.68 -0.76,0.48 -1.57,0.89 -2.41,1.23 -0.46,0.19 -0.98,0.2 -1.45,0.02 l -1.02,-0.38 c -0.01,0 -0.01,0 -0.02,0 -2.32,-0.9 -4.48,-2.18 -6.39,-3.78 C 13.91,41.25 12.19,39.36 10.75,37.27 9.29,35.18 8.13,32.9 7.29,30.5 6.46,28.15 6.02,25.68 6,23.19 6,23.18 6,23.18 6,23.17 V 11.11 C 6,8.902 7.398,7.15 9.12,7.2 v 0 c 2.29,-0.02 4.55,-0.48 6.67,-1.35 1.19,-0.49 2.34,-1.07 3.44,-1.74 1.63,-0.99 3.16,-2.14 4.58,-3.41 1.83,1.17 3.73,2.24 5.67,3.21 1.31,0.66 2.64,1.25 4.01,1.77 1.16,0.44 2.34,0.8 3.55,1.07 1,0.24 2.02,0.38 3.05,0.42 0.51,0.03 1,0.25 1.36,0.62 C 41.8,8.16 42,8.66 42,9.17 v 7 0 c 0,1.104 -0.896,2 -2,2 v 0 c -1.104,0 -2,-0.896 -2,-2 v 0 V 11 C 37.37,10.91 36.75,10.79 36.14,10.65 34.75,10.33 33.4,9.92 32.07,9.42 30.58,8.85 29.11,8.21 27.69,7.49 26.49,6.89 25.32,6.26 24.16,5.59 23.24,6.28 22.3,6.92 21.32,7.52 20.04,8.31 18.7,8.99 17.3,9.55 14.98,10.51 12.51,11.06 10,11.18 v 11.98 c 0.02,2.05 0.38,4.08 1.06,6.01 0.72,2.07 1.72,4.03 2.97,5.82 1.24,1.8 2.72,3.42 4.41,4.82 1.56,1.32 3.34,2.37 5.25,3.11 l 0.25,0.09 c 0.38,-0.18 0.75,-0.39 1.1,-0.61 0.67,-0.42 1.32,-0.88 1.93,-1.38 1.4,-1.15 2.69,-2.44 3.84,-3.85 1.25,-1.5 2.37,-3.11 3.35,-4.81 0.95,-1.62 1.73,-3.34 2.32,-5.12 z m -5.52,-0.84 v 0 c 0.259,-0.784 1.106,-1.209 1.89,-0.95 v 0 c 0.784,0.259 1.209,1.106 0.95,1.89 v 0 c -0.94,2.87 -2.32,4.58 -4.07,7.03 -1.82,2.52 -1.98,2.77 -4.42,4.68 v 0 c -0.651,0.513 -1.597,0.401 -2.11,-0.25 v 0 c -0.513,-0.651 -0.401,-1.597 0.25,-2.11 v 0 c 2.22,-1.74 2.19,-1.78 3.84,-4.07 1.58,-2.21 2.81,-3.64 3.67,-6.22 z M 15.5,24 v 0 c 0,0.828 -0.672,1.5 -1.5,1.5 v 0 c -0.828,0 -1.5,-0.672 -1.5,-1.5 v 0 -10 c 0,-0.36 0.13,-0.7 0.36,-0.97 0.23,-0.27 0.55,-0.45 0.9,-0.51 1.69,-0.27 3.35,-0.72 4.94,-1.35 1.57,-0.62 3.06,-1.42 4.43,-2.39 v 0 c 0.679,-0.48 1.618,-0.321 2.095,0.355 v 0 c 0.477,0.676 0.318,1.61 -0.355,2.085 v 0 c -1.58,1.12 -3.28,2.04 -5.07,2.74 -1.39,0.55 -2.83,0.98 -4.3,1.29 V 24 Z m 10,-0.066 v 0 c 0,0.828 -0.672,1.5 -1.5,1.5 v 0 c -0.828,0 -1.5,-0.672 -1.5,-1.5 v 0 -2 0 c 0,-0.827 0.672,-1.5 1.5,-1.5 v 0 c 0.828,0 1.5,0.673 1.5,1.5 v 0 z"
       style="fill:url(#_lgradient_1);fill-rule:evenodd"
       inkscape:connector-curvature="0" />
  </g>
</svg>

<?xml version="1.0" encoding="UTF-8" standalone="no"?>
<!-- Generator: Gravit.io -->
<svg xmlns="http://www.w3.org/2000/svg" xmlns:xlink="http://www.w3.org/1999/xlink" style="isolation:isolate" viewBox="0 0 48 48" width="48pt" height="48pt"><linearGradient id="_lgradient_1" x1="0" y1="0.5" x2="1" y2="0.5" gradientTransform="matrix(36,0,0,46.469,6,0.7)" gradientUnits="userSpaceOnUse"><stop offset="0%" stop-opacity="1" style="stop-color:rgb(0,255,169)"/><stop offset="100%" stop-opacity="1" style="stop-color:rgb(240,116,179)"/></linearGradient><path d=" M 37.1 25.37 L 37.1 25.37 C 37.448 24.321 38.581 23.752 39.63 24.1 L 39.63 24.1 C 40.679 24.448 41.248 25.581 40.9 26.63 L 40.9 26.63 L 40.28 28.5 C 40.28 28.5 40.28 28.51 40.28 28.51 C 39.59 30.55 38.7 32.51 37.62 34.36 C 36.54 36.25 35.29 38.05 33.9 39.72 C 32.58 41.32 31.11 42.8 29.5 44.11 C 28.76 44.72 27.98 45.28 27.16 45.79 C 26.4 46.27 25.59 46.68 24.75 47.02 C 24.29 47.21 23.77 47.22 23.3 47.04 L 22.28 46.66 C 22.27 46.66 22.27 46.66 22.26 46.66 C 19.94 45.76 17.78 44.48 15.87 42.88 C 13.91 41.25 12.19 39.36 10.75 37.27 C 9.29 35.18 8.13 32.9 7.29 30.5 C 6.46 28.15 6.02 25.68 6 23.19 C 6 23.18 6 23.18 6 23.17 L 6 11.11 C 6 8.902 7.398 7.15 9.12 7.2 L 9.12 7.2 C 11.41 7.18 13.67 6.72 15.79 5.85 C 16.98 5.36 18.13 4.78 19.23 4.11 C 20.86 3.12 22.39 1.97 23.81 0.7 C 25.64 1.87 27.54 2.94 29.48 3.91 C 30.79 4.57 32.12 5.16 33.49 5.68 C 34.65 6.12 35.83 6.48 37.04 6.75 C 38.04 6.99 39.06 7.13 40.09 7.17 C 40.6 7.2 41.09 7.42 41.45 7.79 C 41.8 8.16 42 8.66 42 9.17 L 42 16.17 L 42 16.17 C 42 17.274 41.104 18.17 40 18.17 L 40 18.17 C 38.896 18.17 38 17.274 38 16.17 L 38 16.17 L 38 11 C 37.37 10.91 36.75 10.79 36.14 10.65 C 34.75 10.33 33.4 9.92 32.07 9.42 C 30.58 8.85 29.11 8.21 27.69 7.49 C 26.49 6.89 25.32 6.26 24.16 5.59 C 23.24 6.28 22.3 6.92 21.32 7.52 C 20.04 8.31 18.7 8.99 17.3 9.55 C 14.98 10.51 12.51 11.06 10 11.18 L 10 23.16 C 10.02 25.21 10.38 27.24 11.06 29.17 C 11.78 31.24 12.78 33.2 14.03 34.99 C 15.27 36.79 16.75 38.41 18.44 39.81 C 20 41.13 21.78 42.18 23.69 42.92 L 23.94 43.01 C 24.32 42.83 24.69 42.62 25.04 42.4 C 25.71 41.98 26.36 41.52 26.97 41.02 C 28.37 39.87 29.66 38.58 30.81 37.17 C 32.06 35.67 33.18 34.06 34.16 32.36 C 35.11 30.74 35.89 29.02 36.48 27.24 L 37.1 25.37 L 37.1 25.37 L 37.1 25.37 Z  M 31.58 24.53 L 31.58 24.53 C 31.839 23.746 32.686 23.321 33.47 23.58 L 33.47 23.58 C 34.254 23.839 34.679 24.686 34.42 25.47 L 34.42 25.47 C 33.48 28.34 32.1 30.05 30.35 32.5 C 28.53 35.02 28.37 35.27 25.93 37.18 L 25.93 37.18 C 25.279 37.693 24.333 37.581 23.82 36.93 L 23.82 36.93 C 23.307 36.279 23.419 35.333 24.07 34.82 L 24.07 34.82 C 26.29 33.08 26.26 33.04 27.91 30.75 C 29.49 28.54 30.72 27.11 31.58 24.53 L 31.58 24.53 L 31.58 24.53 Z  M 15.5 24 L 15.5 24 C 15.5 24.828 14.828 25.5 14 25.5 L 14 25.5 C 13.172 25.5 12.5 24.828 12.5 24 L 12.5 24 L 12.5 14 C 12.5 13.64 12.63 13.3 12.86 13.03 C 13.09 12.76 13.41 12.58 13.76 12.52 C 15.45 12.25 17.11 11.8 18.7 11.17 C 20.27 10.55 21.76 9.75 23.13 8.78 L 23.13 8.78 C 23.809 8.3 24.748 8.459 25.225 9.135 L 25.225 9.135 C 25.702 9.811 25.543 10.745 24.87 11.22 L 24.87 11.22 C 23.29 12.34 21.59 13.26 19.8 13.96 C 18.41 14.51 16.97 14.94 15.5 15.25 L 15.5 24 L 15.5 24 Z  M 25.5 23.934 L 25.5 23.934 C 25.5 24.762 24.828 25.434 24 25.434 L 24 25.434 C 23.172 25.434 22.5 24.762 22.5 23.934 L 22.5 23.934 L 22.5 21.934 L 22.5 21.934 C 22.5 21.107 23.172 20.434 24 20.434 L 24 20.434 C 24.828 20.434 25.5 21.107 25.5 21.934 L 25.5 21.934 L 25.5 23.934 Z " fill-rule="evenodd" fill="url(#_lgradient_1)"/></svg>
